CN4T1/185/aimg/vela.svg

<svg clip-rule="evenodd" fill-rule="evenodd" stroke-linejoin="round" stroke-miterlimit="2" viewBox="0 0 132 372" xmlns="http://www.w3.org/2000/svg"><g fill-rule="nonzero"><path d="m0-40.707c-.233-.532-.594-.462-.962-.176-1.575 1.224-3.2.855-4.819.142-.634-.279-1.226-.653-1.984-1.065.766-.712 1.665-1.091 2.508-1.259 1.563-.312 3.179-.416 4.763.05 1.613.475 2.99 2.308 3.118 4.176.07 1.018-.055 2.002-.471 2.944-1.022 2.314-1.346 4.682-.815 7.202.253 1.203.269 2.465-.671 3.569-.383.45-.707.639-1.239.615-1.515-.065-2.691-1.219-2.938-2.911-.071-.483-.082-.974-.124-1.507-.582.296-1.035.659-1.539.755-.994.191-1.877-.448-2.32-1.528-.534-1.305-.267-2.566.237-3.804.614-1.507.119-2.354-1.529-2.573-.646-.085-1.296-.143-1.943-.223-1.203-.147-1.64-.723-1.428-1.929.069-.392.254-.762.336-1.153.046-.214-.012-.45-.03-.812-1.232.521-1.384 1.555-1.485 2.483-.157 1.436.902 2.526 2.36 2.723.778.104 1.542.312 2.463.506-.177.819-.41 1.486-.445 2.164-.045.887-.081 1.822.144 2.667.368 1.382 1.185 2.424 2.8 2.542.491.035.971.219 1.568.363.22 1.863 1.613 2.842 3.256 3.442 1.053.386 1.322 1.042 1.408 2.028.245 2.798.551 5.591.832 8.386.015.15.033.3.038.451.105 3.362.239 6.722.303 10.086.045 2.378-.549 3.406-2.849 3.896-2.189.467-4.353 1.231-6.655 1.117-2.393-.119-4.664-.586-6.71-1.924-1.471-.961-1.972-2.318-1.878-4.004.059-1.052.099-2.112.041-3.163-.13-2.356-.385-4.707-.479-7.064-.105-2.611-.068-5.228-.132-7.841-.021-.85-.203-1.694-.249-2.545-.125-2.358-.191-4.719-.328-7.076-.133-2.303-.341-4.602-.479-6.904-.057-.951-.097-1.916.001-2.86.085-.819.494-1.408 1.427-1.708 1.142-.368 2.171-.409 3.368-.185 2.382.445 4.375 1.674 6.472 2.723 1.659.83 3.369 1.327 5.218.619.762-.292 1.232-.645 1.84-1.435" fill="#fbcdc9" transform="matrix(5.55556 0 0 5.55556 109.42055304 349.2375242)"/><path d="m13.054-40.214c.224 4.832 1.064 9.615 1.429 14.437.362 4.822.228 9.783-1.429 14.327-1.657 4.543-5.025 8.645-9.582 10.27 5.587 1.452 11.968-1 15.143-5.82" fill="#d7a9a3" transform="matrix(-5.44867658116 1.08451753428 1.08451753428 5.44867658116 121.50389604 359.2375322)"/><path d="m0-.716c1.257.158 2.366.865 3.466 1.494.908.518 1.839.992 2.791 1.423 1.36.613 2.789 1.142 4.28 1.211 1.49.068 3.061-.379 4.08-1.468 1.019-1.09 1.329-2.881.488-4.112-.628-.919-1.741-1.383-2.829-1.614-1.941-.414-4.004-.234-5.843.509-.894.361-1.779.861-2.742.837-.529-.013-1.039-.185-1.55-.324-.97-.264-1.972-.412-2.977-.439-1.228-.035-2.583.17-3.394 1.094-.744.847-.707 2.326.452 2.571 1.123.237 2.412-1.354 3.778-1.182" fill="#fff684" transform="matrix(5.55556 0 0 5.55556 33.30938104 131.36512768)"/><path d="m0-28.369c1.513.387 1.859-1.303 3.042-1.26.199.008.414-.402.617-.622.033-.035.043-.091.07-.134 1.652-2.574 2.205-5.273.689-8.087-1.276-2.369-2.675-4.672-4.023-7.011-.706.852-1.386 1.653-2.043 2.472-1.837 2.291-3.132 4.795-2.952 7.843.143 2.435.721 4.651 3.209 5.982.082-.704.159-1.343.229-1.984.1-.896.181-1.794.297-2.687.059-.454-.062-1.206.661-1.067.71.137.318.844.271 1.289-.184 1.749-.18 3.493-.067 5.266m8.314 2.747c-.608.79-1.077 1.143-1.839 1.435-1.85.708-3.56.212-5.219-.619-2.096-1.049-4.089-2.278-6.472-2.723-1.197-.224-2.225-.183-3.368.185-.933.3-1.341.889-1.426 1.708-.098.944-.058 1.909-.001 2.86.138 2.303.345 4.601.479 6.904.136 2.357.203 4.718.328 7.076.045.851.227 1.696.248 2.545.065 2.613.028 5.23.132 7.841.094 2.357.349 4.708.479 7.064.058 1.051.018 2.111-.04 3.164-.095 1.685.406 3.042 1.877 4.003 2.046 1.338 4.318 1.805 6.71 1.924 2.303.115 4.466-.65 6.656-1.117 2.3-.49 2.893-1.518 2.848-3.896-.063-3.364-.197-6.724-.302-10.086-.005-.151-.024-.301-.039-.451-.281-2.794-.587-5.587-.831-8.386-.086-.986-.355-1.642-1.409-2.028-1.642-.6-3.036-1.579-3.255-3.442-.597-.144-1.078-.328-1.569-.363-1.614-.117-2.432-1.159-2.8-2.542-.224-.845-.188-1.78-.143-2.667.035-.678.267-1.345.444-2.164-.921-.194-1.685-.402-2.463-.506-1.458-.196-2.517-1.287-2.36-2.723.101-.928.254-1.962 1.486-2.483.017.362.075.598.03.812-.083.391-.268.761-.337 1.153-.211 1.206.226 1.782 1.428 1.929.648.08 1.297.138 1.944.223 1.648.219 2.142 1.066 1.529 2.573-.505 1.238-.772 2.499-.237 3.804.443 1.08 1.325 1.719 2.32 1.528.504-.095.956-.459 1.538-.755.042.533.054 1.024.125 1.507.246 1.693 1.423 2.846 2.938 2.911.531.024.855-.165 1.239-.615.939-1.103.924-2.366.67-3.569-.53-2.52-.206-4.888.815-7.201.416-.943.542-1.927.471-2.945-.128-1.868-1.505-3.701-3.117-4.176-1.584-.466-3.201-.362-4.763-.05-.843.168-1.743.548-2.509 1.259.758.412 1.35.786 1.985 1.065 1.618.713 3.244 1.082 4.819-.142.367-.286.728-.356.961.176m-10.81-2.712c-2.66-1.801-3.385-4.37-3.258-7.345.06-1.411.121-2.836.724-4.125.507-1.082 1.138-2.121 1.834-3.092.933-1.305 1.974-2.532 2.984-3.78.278-.345.607-.649 1.036-1.101.507 1.154.881 2.224 1.426 3.198.956 1.7 2.058 3.317 3.021 5.015.849 1.496 1.564 3.13 1.297 4.857-.233 1.509-.885 2.954-1.367 4.423-.074.224-.23.421-.438.788.655 0 1.143-.005 1.63.001 4.002.051 6.752 3.663 5.729 7.555-.242.918-.514 1.838-.881 2.71-.679 1.608-.501 3.251-.342 4.903.086.897.204 1.793.24 2.692.035.88-.191 1.716-.861 2.333-.624.577-.733 1.279-.67 2.056.109 1.353.222 2.705.334 4.058.285 3.401.577 6.801.853 10.203.182 2.241.298 4.489.535 6.725.089.84-.112 1.465-.696 2.025-1.29 1.236-2.699 2.198-4.55 2.427-1.086.134-2.135.558-3.221.71-3.627.506-7.068-.018-10.233-1.978-1.861-1.152-2.642-2.822-2.456-4.961.29-3.311.049-6.603-.241-9.9-.106-1.2-.119-2.41-.134-3.616-.021-1.754.055-3.51-.02-5.261-.105-2.452-.33-4.9-.467-7.351-.075-1.354-.029-2.716-.119-4.068-.113-1.696-.315-3.385-.464-5.078-.058-.651-.093-1.304-.109-1.956-.037-1.52.948-2.571 2.001-3.31.681-.478 1.837-.433 2.763-.373 1.381.09 2.748.4 4.12.616" fill="#231f20" transform="matrix(5.55556 0 0 5.55556 63.2316272 265.4319016)"/><path d="m0 16.727c-.113-1.773-.117-3.517.067-5.266.047-.445.439-1.152-.271-1.289-.723-.139-.602.613-.661 1.067-.116.893-.197 1.791-.297 2.687-.07.641-.147 1.28-.229 1.984-2.488-1.331-3.066-3.547-3.209-5.982-.18-3.048 1.115-5.552 2.952-7.843.657-.819 1.337-1.62 2.043-2.472 1.348 2.339 2.747 4.642 4.023 7.011 1.516 2.814.963 5.513-.689 8.087-.027.043-.037.099-.07.134-.203.22-.418.63-.617.622-1.183-.043-1.529 1.647-3.042 1.26" fill="#fff200" transform="matrix(5.55556 0 0 5.55556 63.2316272 14.89836784)"/><path d="m0-11.083c.413 1.719 1.92 2.981 2.479 4.657.716 2.146-.251 4.471-1.387 6.426.758-2.288.045-4.993-1.742-6.61-.588 1.22-.83 2.529-1.069 3.832-2.231-2.664 2.326-5.779 1.719-8.305" fill="#f8991c" transform="matrix(5.55556 0 0 5.55556 62.21495972 96.83732228)"/><path d="m0-6.969c1.31 2.538 3.028 4.865 5.068 6.864-.444-3.361-3.68-5.8-4.277-9.136-1.925 1.504-3.425 3.547-4.286 5.835-.681 1.809-.958 3.844-.344 5.678-.132-1.694.458-3.292 1.133-4.815.187-.422 2.74-4.36 2.706-4.426" fill="#fff" transform="matrix(5.55556 0 0 5.55556 62.44273768 67.37063204)"/></g></svg>

<?xml version="1.0" encoding="UTF-8" standalone="no"?>
<!DOCTYPE svg PUBLIC "-//W3C//DTD SVG 1.1//EN" "http://www.w3.org/Graphics/SVG/1.1/DTD/svg11.dtd">
<svg width="100%" height="100%" viewBox="0 0 132 372" version="1.1" xmlns="http://www.w3.org/2000/svg" xmlns:xlink="http://www.w3.org/1999/xlink" xml:space="preserve" xmlns:serif="http://www.serif.com/" style="fill-rule:evenodd;clip-rule:evenodd;stroke-linejoin:round;stroke-miterlimit:2;">
    <g transform="matrix(1,0,0,1,-4213.77,-8283.92)">
        <g transform="matrix(5.55556,0,0,5.55556,3631.89,4783.46)">
            <g transform="matrix(1,0,0,1,124.434,692.945)">
                <path d="M0,-40.707C-0.233,-41.239 -0.594,-41.169 -0.962,-40.883C-2.537,-39.659 -4.162,-40.028 -5.781,-40.741C-6.415,-41.02 -7.007,-41.394 -7.765,-41.806C-6.999,-42.518 -6.1,-42.897 -5.257,-43.065C-3.694,-43.377 -2.078,-43.481 -0.494,-43.015C1.119,-42.54 2.496,-40.707 2.624,-38.839C2.694,-37.821 2.569,-36.837 2.153,-35.895C1.131,-33.581 0.807,-31.213 1.338,-28.693C1.591,-27.49 1.607,-26.228 0.667,-25.124C0.284,-24.674 -0.04,-24.485 -0.572,-24.509C-2.087,-24.574 -3.263,-25.728 -3.51,-27.42C-3.581,-27.903 -3.592,-28.394 -3.634,-28.927C-4.216,-28.631 -4.669,-28.268 -5.173,-28.172C-6.167,-27.981 -7.05,-28.62 -7.493,-29.7C-8.027,-31.005 -7.76,-32.266 -7.256,-33.504C-6.642,-35.011 -7.137,-35.858 -8.785,-36.077C-9.431,-36.162 -10.081,-36.22 -10.728,-36.3C-11.931,-36.447 -12.368,-37.023 -12.156,-38.229C-12.087,-38.621 -11.902,-38.991 -11.82,-39.382C-11.774,-39.596 -11.832,-39.832 -11.85,-40.194C-13.082,-39.673 -13.234,-38.639 -13.335,-37.711C-13.492,-36.275 -12.433,-35.185 -10.975,-34.988C-10.197,-34.884 -9.433,-34.676 -8.512,-34.482C-8.689,-33.663 -8.922,-32.996 -8.957,-32.318C-9.002,-31.431 -9.038,-30.496 -8.813,-29.651C-8.445,-28.269 -7.628,-27.227 -6.013,-27.109C-5.522,-27.074 -5.042,-26.89 -4.445,-26.746C-4.225,-24.883 -2.832,-23.904 -1.189,-23.304C-0.136,-22.918 0.133,-22.262 0.219,-21.276C0.464,-18.478 0.77,-15.685 1.051,-12.89C1.066,-12.74 1.084,-12.59 1.089,-12.439C1.194,-9.077 1.328,-5.717 1.392,-2.353C1.437,0.025 0.843,1.053 -1.457,1.543C-3.646,2.01 -5.81,2.774 -8.112,2.66C-10.505,2.541 -12.776,2.074 -14.822,0.736C-16.293,-0.225 -16.794,-1.582 -16.7,-3.268C-16.641,-4.32 -16.601,-5.38 -16.659,-6.431C-16.789,-8.787 -17.044,-11.138 -17.138,-13.495C-17.243,-16.106 -17.206,-18.723 -17.27,-21.336C-17.291,-22.186 -17.473,-23.03 -17.519,-23.881C-17.644,-26.239 -17.71,-28.6 -17.847,-30.957C-17.98,-33.26 -18.188,-35.559 -18.326,-37.861C-18.383,-38.812 -18.423,-39.777 -18.325,-40.721C-18.24,-41.54 -17.831,-42.129 -16.898,-42.429C-15.756,-42.797 -14.727,-42.838 -13.53,-42.614C-11.148,-42.169 -9.155,-40.94 -7.058,-39.891C-5.399,-39.061 -3.689,-38.564 -1.84,-39.272C-1.078,-39.564 -0.608,-39.917 0,-40.707" style="fill:rgb(251,205,201);fill-rule:nonzero;"/>
            </g>
        </g>
        <g transform="matrix(5.55556,0,0,5.55556,3631.89,4783.46)">
            <g transform="matrix(-0.980761,0.195213,0.195213,0.980761,126.609,694.745)">
                <path d="M13.054,-40.214C13.278,-35.382 14.118,-30.599 14.483,-25.777C14.845,-20.955 14.711,-15.994 13.054,-11.45C11.397,-6.907 8.029,-2.805 3.472,-1.18C9.059,0.272 15.44,-2.18 18.615,-7" style="fill:rgb(215,169,163);fill-rule:nonzero;"/>
            </g>
        </g>
        <g transform="matrix(5.55556,0,0,5.55556,3631.89,4783.46)">
            <g transform="matrix(1,0,0,1,110.734,653.728)">
                <path d="M0,-0.716C1.257,-0.558 2.366,0.149 3.466,0.778C4.374,1.296 5.305,1.77 6.257,2.201C7.617,2.814 9.046,3.343 10.537,3.412C12.027,3.48 13.598,3.033 14.617,1.944C15.636,0.854 15.946,-0.937 15.105,-2.168C14.477,-3.087 13.364,-3.551 12.276,-3.782C10.335,-4.196 8.272,-4.016 6.433,-3.273C5.539,-2.912 4.654,-2.412 3.691,-2.436C3.162,-2.449 2.652,-2.621 2.141,-2.76C1.171,-3.024 0.169,-3.172 -0.836,-3.199C-2.064,-3.234 -3.419,-3.029 -4.23,-2.105C-4.974,-1.258 -4.937,0.221 -3.778,0.466C-2.655,0.703 -1.366,-0.888 0,-0.716" style="fill:rgb(255,246,132);fill-rule:nonzero;"/>
            </g>
        </g>
        <g transform="matrix(5.55556,0,0,5.55556,3631.89,4783.46)">
            <g transform="matrix(1,0,0,1,116.12,677.86)">
                <path d="M0,-28.369C1.513,-27.982 1.859,-29.672 3.042,-29.629C3.241,-29.621 3.456,-30.031 3.659,-30.251C3.692,-30.286 3.702,-30.342 3.729,-30.385C5.381,-32.959 5.934,-35.658 4.418,-38.472C3.142,-40.841 1.743,-43.144 0.395,-45.483C-0.311,-44.631 -0.991,-43.83 -1.648,-43.011C-3.485,-40.72 -4.78,-38.216 -4.6,-35.168C-4.457,-32.733 -3.879,-30.517 -1.391,-29.186C-1.309,-29.89 -1.232,-30.529 -1.162,-31.17C-1.062,-32.066 -0.981,-32.964 -0.865,-33.857C-0.806,-34.311 -0.927,-35.063 -0.204,-34.924C0.506,-34.787 0.114,-34.08 0.067,-33.635C-0.117,-31.886 -0.113,-30.142 0,-28.369M8.314,-25.622C7.706,-24.832 7.237,-24.479 6.475,-24.187C4.625,-23.479 2.915,-23.975 1.256,-24.806C-0.84,-25.855 -2.833,-27.084 -5.216,-27.529C-6.413,-27.753 -7.441,-27.712 -8.584,-27.344C-9.517,-27.044 -9.925,-26.455 -10.01,-25.636C-10.108,-24.692 -10.068,-23.727 -10.011,-22.776C-9.873,-20.473 -9.666,-18.175 -9.532,-15.872C-9.396,-13.515 -9.329,-11.154 -9.204,-8.796C-9.159,-7.945 -8.977,-7.1 -8.956,-6.251C-8.891,-3.638 -8.928,-1.021 -8.824,1.59C-8.73,3.947 -8.475,6.298 -8.345,8.654C-8.287,9.705 -8.327,10.765 -8.385,11.818C-8.48,13.503 -7.979,14.86 -6.508,15.821C-4.462,17.159 -2.19,17.626 0.202,17.745C2.505,17.86 4.668,17.095 6.858,16.628C9.158,16.138 9.751,15.11 9.706,12.732C9.643,9.368 9.509,6.008 9.404,2.646C9.399,2.495 9.38,2.345 9.365,2.195C9.084,-0.599 8.778,-3.392 8.534,-6.191C8.448,-7.177 8.179,-7.833 7.125,-8.219C5.483,-8.819 4.089,-9.798 3.87,-11.661C3.273,-11.805 2.792,-11.989 2.301,-12.024C0.687,-12.141 -0.131,-13.183 -0.499,-14.566C-0.723,-15.411 -0.687,-16.346 -0.642,-17.233C-0.607,-17.911 -0.375,-18.578 -0.198,-19.397C-1.119,-19.591 -1.883,-19.799 -2.661,-19.903C-4.119,-20.099 -5.178,-21.19 -5.021,-22.626C-4.92,-23.554 -4.767,-24.588 -3.535,-25.109C-3.518,-24.747 -3.46,-24.511 -3.505,-24.297C-3.588,-23.906 -3.773,-23.536 -3.842,-23.144C-4.053,-21.938 -3.616,-21.362 -2.414,-21.215C-1.766,-21.135 -1.117,-21.077 -0.47,-20.992C1.178,-20.773 1.672,-19.926 1.059,-18.419C0.554,-17.181 0.287,-15.92 0.822,-14.615C1.265,-13.535 2.147,-12.896 3.142,-13.087C3.646,-13.182 4.098,-13.546 4.68,-13.842C4.722,-13.309 4.734,-12.818 4.805,-12.335C5.051,-10.642 6.228,-9.489 7.743,-9.424C8.274,-9.4 8.598,-9.589 8.982,-10.039C9.921,-11.142 9.906,-12.405 9.652,-13.608C9.122,-16.128 9.446,-18.496 10.467,-20.809C10.883,-21.752 11.009,-22.736 10.938,-23.754C10.81,-25.622 9.433,-27.455 7.821,-27.93C6.237,-28.396 4.62,-28.292 3.058,-27.98C2.215,-27.812 1.315,-27.432 0.549,-26.721C1.307,-26.309 1.899,-25.935 2.534,-25.656C4.152,-24.943 5.778,-24.574 7.353,-25.798C7.72,-26.084 8.081,-26.154 8.314,-25.622M-2.496,-28.334C-5.156,-30.135 -5.881,-32.704 -5.754,-35.679C-5.694,-37.09 -5.633,-38.515 -5.03,-39.804C-4.523,-40.886 -3.892,-41.925 -3.196,-42.896C-2.263,-44.201 -1.222,-45.428 -0.212,-46.676C0.066,-47.021 0.395,-47.325 0.824,-47.777C1.331,-46.623 1.705,-45.553 2.25,-44.579C3.206,-42.879 4.308,-41.262 5.271,-39.564C6.12,-38.068 6.835,-36.434 6.568,-34.707C6.335,-33.198 5.683,-31.753 5.201,-30.284C5.127,-30.06 4.971,-29.863 4.763,-29.496C5.418,-29.496 5.906,-29.501 6.393,-29.495C10.395,-29.444 13.145,-25.832 12.122,-21.94C11.88,-21.022 11.608,-20.102 11.241,-19.23C10.562,-17.622 10.74,-15.979 10.899,-14.327C10.985,-13.43 11.103,-12.534 11.139,-11.635C11.174,-10.755 10.948,-9.919 10.278,-9.302C9.654,-8.725 9.545,-8.023 9.608,-7.246C9.717,-5.893 9.83,-4.541 9.942,-3.188C10.227,0.213 10.519,3.613 10.795,7.015C10.977,9.256 11.093,11.504 11.33,13.74C11.419,14.58 11.218,15.205 10.634,15.765C9.344,17.001 7.935,17.963 6.084,18.192C4.998,18.326 3.949,18.75 2.863,18.902C-0.764,19.408 -4.205,18.884 -7.37,16.924C-9.231,15.772 -10.012,14.102 -9.826,11.963C-9.536,8.652 -9.777,5.36 -10.067,2.063C-10.173,0.863 -10.186,-0.347 -10.201,-1.553C-10.222,-3.307 -10.146,-5.063 -10.221,-6.814C-10.326,-9.266 -10.551,-11.714 -10.688,-14.165C-10.763,-15.519 -10.717,-16.881 -10.807,-18.233C-10.92,-19.929 -11.122,-21.618 -11.271,-23.311C-11.329,-23.962 -11.364,-24.615 -11.38,-25.267C-11.417,-26.787 -10.432,-27.838 -9.379,-28.577C-8.698,-29.055 -7.542,-29.01 -6.616,-28.95C-5.235,-28.86 -3.868,-28.55 -2.496,-28.334" style="fill:rgb(35,31,32);fill-rule:nonzero;"/>
            </g>
        </g>
        <g transform="matrix(5.55556,0,0,5.55556,3631.89,4783.46)">
            <g transform="matrix(1,0,0,1,116.12,632.764)">
                <path d="M0,16.727C-0.113,14.954 -0.117,13.21 0.067,11.461C0.114,11.016 0.506,10.309 -0.204,10.172C-0.927,10.033 -0.806,10.785 -0.865,11.239C-0.981,12.132 -1.062,13.03 -1.162,13.926C-1.232,14.567 -1.309,15.206 -1.391,15.91C-3.879,14.579 -4.457,12.363 -4.6,9.928C-4.78,6.88 -3.485,4.376 -1.648,2.085C-0.991,1.266 -0.311,0.465 0.395,-0.387C1.743,1.952 3.142,4.255 4.418,6.624C5.934,9.438 5.381,12.137 3.729,14.711C3.702,14.754 3.692,14.81 3.659,14.845C3.456,15.065 3.241,15.475 3.042,15.467C1.859,15.424 1.513,17.114 0,16.727" style="fill:rgb(255,242,0);fill-rule:nonzero;"/>
            </g>
        </g>
        <g transform="matrix(5.55556,0,0,5.55556,3631.89,4783.46)">
            <g transform="matrix(1,0,0,1,115.937,647.513)">
                <path d="M0,-11.083C0.413,-9.364 1.92,-8.102 2.479,-6.426C3.195,-4.28 2.228,-1.955 1.092,0C1.85,-2.288 1.137,-4.993 -0.65,-6.61C-1.238,-5.39 -1.48,-4.081 -1.719,-2.778C-3.95,-5.442 0.607,-8.557 0,-11.083" style="fill:rgb(248,153,28);fill-rule:nonzero;"/>
            </g>
        </g>
        <g transform="matrix(5.55556,0,0,5.55556,3631.89,4783.46)">
            <g transform="matrix(1,0,0,1,115.978,642.209)">
                <path d="M0,-6.969C1.31,-4.431 3.028,-2.104 5.068,-0.105C4.624,-3.466 1.388,-5.905 0.791,-9.241C-1.134,-7.737 -2.634,-5.694 -3.495,-3.406C-4.176,-1.597 -4.453,0.438 -3.839,2.272C-3.971,0.578 -3.381,-1.02 -2.706,-2.543C-2.519,-2.965 0.034,-6.903 0,-6.969" style="fill:white;fill-rule:nonzero;"/>
            </g>
        </g>
    </g>
</svg>
